X:1
T:Title
%%score { ( 1 3 ) | ( 2 4 ) }
L:1/8
M:4/4
K:A
V:1 treble nm="Grand Piano"
V:3 treble 
V:2 bass 
V:4 bass 
V:1
 z4 z2[Q:1/4=100] C[B,D] | [CE][Ec] [Ec]>[DB] [CA]2 [CE][CA] | AG G>F [CE]2 [CE][EA] | %3
 BBBB GE d>c | B6 C[B,D] |[M:3/4] [CE][Ec] [Ec]>[DB] [CA]2 |[M:1/4] [CE][CA] | %7
[M:4/4] AG G>F [CE]2 [CA][EG] | [DF][Fd][Fd][Fd] cB A>G |[M:3/4] [A,CA]6 |[M:1/4] c>d | %11
[M:4/4] e6 z2 | A6 z2 | cccc cB d>c | B6 z2 |[M:3/4] [CE][Ec] [Ec]>[DB] [CA]2 |[M:1/4] [CE][CA] | %17
[M:4/4] AG G>F [CE]2 [CA][EG] | [DF][Fd][Fd][Fd] cB A>G |[M:7/4] [CA]6 z2 z2 z4 |] %20
V:2
 z4 z2 [A,,A,][A,,A,] | [A,,A,][A,,A,] [A,,A,]>[A,,A,] [A,,A,]2 [A,,A,][A,,A,] | %2
 [D,F,D][D,F,D] [D,A,D]>[D,A,D] [A,,A,]2 [A,,A,][A,,A,] | %3
 [E,G,E][E,G,E][E,G,E][E,G,E] [E,B,E][E,G,] [E,B,E]>[E,A,E] | [E,G,E]6 [A,,A,][A,,A,] | %5
[M:3/4] [A,,A,][A,,A,] [A,,A,]>[A,,A,] [A,,A,]2 |[M:1/4] [A,,A,][A,,A,] | %7
[M:4/4] [D,F,D][D,F,D] [D,A,D]>[D,A,D] [A,,A,]2 [A,,A,][A,,A,] | %8
 [D,A,][D,A,][D,A,][D,A,] [E,A,E][E,G,D] [E,A,C]>[E,B,D] |[M:3/4] A,,6 |[M:1/4][K:treble] A>B | %11
[M:4/4] c6 z2 | E2[K:bass] [A,,E,]>[A,,E,] [A,,E,]2 [A,C]>[A,D] | %13
 [A,E][A,E][A,E][A,E] [E,A,E][E,G,E] [E,B,E]>[E,A,E] | %14
 [E,G,E]2 [E,G,]>[E,G,] [E,G,]2 [A,,E,A,][A,,E,] |[M:3/4] [A,,A,][A,,A,] [A,,A,]>[A,,A,] [A,,A,]2 | %16
[M:1/4] [A,,A,][A,,A,] |[M:4/4] [D,F,D][D,F,D] [D,A,D]>[D,A,D] [A,,A,]2 [A,,A,][A,,A,] | %18
 [D,A,][D,A,][D,A,][D,A,] [E,A,E][E,G,D] [E,A,C]>[E,B,D] |[M:7/4] [A,,A,]6 z2 z2 z4 |] %20
V:3
 x8 | x8 | x8 | x8 | x8 |[M:3/4] x6 |[M:1/4] x2 |[M:4/4] x8 | x8 |[M:3/4] x6 |[M:1/4] x2 | %11
[M:4/4] z2 C>C C2 c>e | z2 C>C C2 A>B | x8 | z2 E>E E2 C[B,D] |[M:3/4] x6 |[M:1/4] x2 |[M:4/4] x8 | %18
 x8 |[M:7/4] x14 |] %20
V:4
 x8 | x8 | x8 | x8 | x8 |[M:3/4] x6 |[M:1/4] x2 |[M:4/4] x8 | x8 |[M:3/4] x6 | %10
[M:1/4][K:treble] x2 |[M:4/4] z2 A,>A, A,2 A>c | x2[K:bass] x6 | x8 | x8 |[M:3/4] x6 |[M:1/4] x2 | %17
[M:4/4] x8 | x8 |[M:7/4] x14 |] %20

